!!!OTL: We Wish You a Merry Christmas
!!!COM: unknown
!!!ODT: 1650 (17th c.)
!!!YOR: The Christmas Fake Book
!!!YOY: 1990
!!!AST: Christmas song
!!!YEC: Brian Luke, 2001
**kern	**harm
*k[f#]	*k[f#]
*M3/4	*M3/4
*G:	*G:
*>A	*>A
4d	.
=1	=1
4g	I
8g	.
8a	.
8g	.
8f#	.
=2	=2
4e	IV
4e	.
4e	V7/V/V
=3	=3
4a	V7/V
8a	.
8b	.
8a	.
8g	.
=4	=4
4f#	V7
4d	.
4d	.
=5	=5
4b	V7/IV
8b	.
8cc	.
8b	.
8a	.
=6	=6
4g	IV
4e	.
8d	I
8d	.
=7	=7
4e	ii
4a	.
4f#	V7
=8	=8
2g	I;
*>B	*>B
4d	I
=9	=9
4g	.
4g	.
4g	.
=10	=10
2f#	V
4f#	.
=11	=11
4g	I
4f#	V
4e	V/V
=12	=12
2d	V
4a	.
=13	=13
4b	I
4a	.
4g	.
=14	=14
4dd	.
4d	.
8d	.
8d	.
=15	=15
4e	ii
4a	.
4f#	V7
=16	=16
2g	I;
*-	*-
